X: 094
T: Miss Haldane of Gleneagles's Strathspey
R: strathspey
Q: "Slow"
B: William Shepherd "1st Collection" 1793 p.9 #4
F: http://imslp.org/wiki/File:PMLP73094-Shepherd_Collections_HMT.pdf
C: William Shepherd (17??-1812)
Z: 2012 John Chambers <jc:trillian.mit.edu>
M: C
L: 1/16
K: C
GF |\
E3C C2DE F3E D2GF | E2C2 C2E2 DCB,A, G,2GF |\
E3C C2DE F3E D2G2 | ABcA Bcdf e2c2 c2 :|
{a}gf |\
e3c c2de f3e d2gf | e2c2 c2A2 BcdB G2gf |\
e3c c2de f3e d2gf | e2c2 Bagf e2c2 c2 ||
gf |\
e3c c2de fgaf d2gf | e2c2 c2A2 BcdB G2cB |\
A2c2 G2c2 F2d2 E2c2 | DEFD EAGF E2C2 C2 |]
